icons/light-bulb-24.svg

<svg xmlns="http://www.w3.org/2000/svg" width="24" height="24" viewBox="0 0 24 24"><path d="M12 2.5c-3.81 0-6.5 2.743-6.5 6.119 0 1.536.632 2.572 1.425 3.56.172.215.347.422.527.635l.096.112c.21.25.427.508.63.774.404.531.783 1.128.995 1.834a.75.75 0 01-1.436.432c-.138-.46-.397-.89-.753-1.357a18.111 18.111 0 00-.582-.714l-.092-.11c-.18-.212-.37-.436-.555-.667C4.87 12.016 4 10.651 4 8.618 4 4.363 7.415 1 12 1s8 3.362 8 7.619c0 2.032-.87 3.397-1.755 4.5-.185.23-.375.454-.555.667l-.092.109c-.21.248-.405.481-.582.714-.356.467-.615.898-.753 1.357a.751.751 0 01-1.437-.432c.213-.706.592-1.303.997-1.834.202-.266.419-.524.63-.774l.095-.112c.18-.213.355-.42.527-.634.793-.99 1.425-2.025 1.425-3.561C18.5 5.243 15.81 2.5 12 2.5zM8.75 18h6.5a.75.75 0 010 1.5h-6.5a.75.75 0 010-1.5zm.75 3.75a.75.75 0 01.75-.75h3.5a.75.75 0 010 1.5h-3.5a.75.75 0 01-.75-.75z"/></svg>

<svg xmlns="http://www.w3.org/2000/svg" width="24" height="24" viewBox="0 0 24 24">
  <defs/>
  <path d="M12,2.5 C8.19,2.5 5.5,5.243 5.5,8.619 C5.5,10.155 6.132,11.191 6.925,12.179 C7.097,12.394 7.272,12.601 7.452,12.814 L7.548,12.926 C7.758,13.176 7.975,13.434 8.178,13.7 C8.582,14.231 8.961,14.828 9.173,15.534 C9.281,15.927 9.056,16.334 8.666,16.451 C8.276,16.568 7.864,16.353 7.737,15.966 C7.599,15.506 7.34,15.076 6.984,14.609 C6.796,14.366 6.602,14.128 6.402,13.895 L6.31,13.785 C6.13,13.573 5.94,13.349 5.755,13.118 C4.87,12.016 4,10.651 4,8.618 C4,4.363 7.415,1 12,1 C16.585,1 20,4.362 20,8.619 C20,10.651 19.13,12.016 18.245,13.119 C18.06,13.349 17.87,13.573 17.69,13.786 L17.598,13.895 C17.388,14.143 17.193,14.376 17.016,14.609 C16.66,15.076 16.401,15.507 16.263,15.966 C16.144,16.363 15.725,16.588 15.328,16.469 C14.932,16.349 14.707,15.931 14.826,15.534 C15.039,14.828 15.418,14.231 15.823,13.7 C16.025,13.434 16.242,13.176 16.453,12.926 L16.548,12.814 C16.728,12.601 16.903,12.394 17.075,12.18 C17.868,11.19 18.5,10.155 18.5,8.619 C18.5,5.243 15.81,2.5 12,2.5 Z M8.75,18 L15.25,18 C15.664,18 16,18.336 16,18.75 C16,19.164 15.664,19.5 15.25,19.5 L8.75,19.5 C8.336,19.5 8,19.164 8,18.75 C8,18.336 8.336,18 8.75,18 Z M9.5,21.75 C9.5,21.336 9.836,21 10.25,21 L13.75,21 C14.164,21 14.5,21.336 14.5,21.75 C14.5,22.164 14.164,22.5 13.75,22.5 L10.25,22.5 C9.836,22.5 9.5,22.164 9.5,21.75 Z"/>
</svg>
